src/apps/scalable/bitmap2component.svg

<?xml version="1.0" encoding="UTF-8"?>
<svg width="64" height="64" version="1.1" xmlns="http://www.w3.org/2000/svg">
 <defs>
  <linearGradient id="linearGradient862-3-3" x1="7.9373" x2="7.9373" y1="15.081" y2="1.852" gradientTransform="matrix(4.0494,0,0,4.0494,-2.2856,-2.2519)" gradientUnits="userSpaceOnUse">
   <stop stop-color="#f1efeb" offset="0"/>
   <stop stop-color="#fdfcfc" offset="1"/>
  </linearGradient>
  <filter id="filter7" x="-.027" y="-.027" width="1.054" height="1.054" color-interpolation-filters="sRGB">
   <feGaussianBlur stdDeviation="0.675"/>
  </filter>
 </defs>
 <rect x="2" y="3" width="60" height="60" rx="30" ry="30" filter="url(#filter7)" opacity=".15"/>
 <rect x="2" y="2" width="60" height="60" rx="30" ry="30" fill="url(#linearGradient862-3-3)" stroke-width="4.0494"/>
 <path d="m36.377 16c-0.12945 0.084572-0.25593 0.17437-0.37695 0.27148v2.7285h3v-3h-2.623zm3.623 0v3h1.0488l1.9512-1.9512v-0.26953c-0.31966-0.29958-0.66905-0.56039-1.0391-0.7793h-1.9609zm-5 1.377c-0.32092 0.49161-0.54548 1.0406-0.67383 1.623h0.67383v-1.623zm-0.79297 2.623c-0.002192 0.10514-0.008046 0.21026-0.003906 0.31641 0.036111 0.92641 0.31761 1.8346 0.79688 2.6445v-2.9609h-0.79297zm1.793 0v3h1.0469l1.9531-1.9531v-1.0469h-3zm4 0v0.048828l0.048828-0.048828h-0.048828zm-4 4v0.046875l0.046875-0.046875h-0.046875zm-13 0.83594c-0.74366 0.058428-1.5055 0.36403-2.1953 0.89453-0.18763 0.14433-0.46716 0.53682-0.80469 1.0879v0.18164h3v-2.1641zm1 0.080078v2.084h2.4121c-0.22248-0.29258-0.44704-0.58709-0.63476-0.84375-0.48933-0.66924-1.1069-1.072-1.7773-1.2402zm-4 3.084v3h3v-3h-3zm4 0v3h3v-3h-3zm-5 0.60352c-0.37656 0.7119-0.78427 1.5136-1.2188 2.3965h1.2188v-2.3965zm9 0.43164v1.9648h0.53906l0.55274-0.5957c-0.24422-0.30085-0.68194-0.85325-1.0918-1.3691zm-10.701 2.9648c-0.42464 0.87823-0.85422 1.7817-1.2988 2.7344v0.26562h3v-3h-1.7012zm2.7012 0v3h3v-3h-3zm4 0v3h0.82812l2.1719-2.3418v-0.6582h-3zm-8 4v3h3v-3h-3zm4 0v3h1.1172l1.8828-2.0293v-0.9707h-3zm-5 0.89062c-0.32395 0.70801-0.63999 1.4098-0.95508 2.1094h0.95508v-2.1094zm-1.4043 3.1094c-0.49689 1.1109-0.88764 2.0123-1.3203 3h2.7246v-3h-1.4043zm2.4043 0v3h1.4062l1.5938-1.7188v-1.2812h-3zm4 0v0.20312l0.18945-0.20312h-0.18945zm-8 4v3h1.6953l1.3047-1.4062v-1.5938h-3zm4 0v0.51562l0.47852-0.51562h-0.47852z" fill="#565656"/>
 <path d="M44.844 20.732c-.055-1.411-.668-2.786-1.705-3.823l-7.23 7.23c1.036 1.037 2.411 1.65 3.822 1.706 1.411.055 2.743-.453 3.701-1.412.96-.959 1.467-2.29 1.412-3.701zM30 31.5l5.686 7.822c.9 1.032 1.434 1.064 2.421 0l4.035-4.25c.685-.794 1.038-.782 1.614 0l7.666 10.625c1.132 1.658.894 2.136-1.21 2.125h-37.12L30 31.5z" clip-rule="evenodd" fill="#1A81C4" fill-rule="evenodd"/>
 <path d="m49.887 7.8848-42.002 42c0.59941 0.8084 1.236 1.5874 1.9121 2.3301l42.418-42.418c-0.74227-0.6758-1.5202-1.313-2.3281-1.9121z" fill="#333"/>
</svg>

<svg xmlns="http://www.w3.org/2000/svg" width="64" height="64"><defs><linearGradient id="b" x1="7.937" x2="7.937" y1="15.081" y2="1.852" gradientTransform="translate(-2.286 -2.252) scale(4.0494)" gradientUnits="userSpaceOnUse"><stop offset="0" stop-color="#f1efeb"/><stop offset="1" stop-color="#fdfcfc"/></linearGradient><filter id="a" width="1.054" height="1.054" x="-.027" y="-.027" color-interpolation-filters="sRGB"><feGaussianBlur stdDeviation=".675"/></filter></defs><rect width="60" height="60" x="2" y="3" filter="url(#a)" opacity=".15" rx="30" ry="30"/><rect width="60" height="60" x="2" y="2" fill="url(#b)" rx="30" ry="30"/><path fill="#565656" d="M36.377 16c-.13.085-.256.174-.377.271V19h3v-3h-2.623zM40 16v3h1.049L43 17.049v-.27c-.32-.3-.669-.56-1.04-.779H40zm-5 1.377A4.88 4.88 0 0 0 34.326 19H35v-1.623zM34.207 20c-.002.105-.008.21-.004.316.036.927.318 1.835.797 2.645V20h-.793zM36 20v3h1.047L39 21.047V20h-3zm4 0v.049l.049-.049H40zm-4 4v.047l.047-.047H36zm-13 .836c-.744.058-1.505.364-2.195.894-.188.145-.467.537-.805 1.088V27h3v-2.164zm1 .08V27h2.412c-.222-.293-.447-.587-.635-.844-.489-.669-1.107-1.072-1.777-1.24zM20 28v3h3v-3h-3zm4 0v3h3v-3h-3zm-5 .604A93.001 93.001 0 0 0 17.781 31H19v-2.396zm9 .431V31h.54l.552-.596c-.244-.3-.682-.853-1.092-1.369zM17.299 32c-.425.878-.854 1.782-1.299 2.734V35h3v-3H17.3zM20 32v3h3v-3h-3zm4 0v3h.828L27 32.658V32h-3zm-8 4v3h3v-3h-3zm4 0v3h1.117L23 36.97V36h-3zm-5 .89c-.324.709-.64 1.41-.955 2.11H15v-2.11zM13.596 40c-.497 1.11-.888 2.012-1.32 3H15v-3h-1.404zM16 40v3h1.406L19 41.281V40h-3zm4 0v.203l.19-.203H20zm-8 4v3h1.696L15 45.594V44h-3zm4 0v.516L16.48 44H16z"/><path fill="#1A81C4" fill-rule="evenodd" d="M44.844 20.732c-.055-1.411-.668-2.786-1.705-3.823l-7.23 7.23c1.036 1.037 2.411 1.65 3.822 1.706 1.411.055 2.743-.453 3.701-1.412.96-.959 1.467-2.29 1.412-3.701zM30 31.5l5.686 7.822c.9 1.032 1.434 1.064 2.421 0l4.035-4.25c.685-.794 1.038-.782 1.614 0l7.666 10.625c1.132 1.658.894 2.136-1.21 2.125h-37.12L30 31.5z" clip-rule="evenodd"/><path fill="#333" d="m49.887 7.885-42.002 42c.6.808 1.236 1.587 1.912 2.33L52.215 9.797a29.995 29.995 0 0 0-2.328-1.912z"/></svg>
